X: 11131
T: Duke Of Mountcollins
R: jig
M: 6/8
K: Gmajor
|:D|G,B,D GBd|gfg edB|cBc EFG|AGE DB,D|
G,B,D GBd|gfg edB|cBc EFG|AGF G2:|
|:D|GBd gfg|bag fed|cBc EFG|cAG FDC|
B,DG Bdg|bag fed|cBc EFG|AGF G2:|

